X: 32
T: DA FERRY REEL
S: Lynda Keenan, Brae School
R: reel
B: Haand me doon da fiddle, 1979
Z: 2012 John Chambers <jc:trillian.mit.edu>
M: C
L: 1/8
K: D
A |\
vd2ud(vA d2)d2 | efed c2A2 | (Bc)dB (AB)A(F | G2)E2 E3(A |
d2)d(A d2)d2 | efed c2A2 | (Bc)dB (AG)FE | D2d2 d2z :||: (e |
f2)f(d fa)f(d | fg)a(g fe)d(f | e2)e(c e2)e(c | ef)e(d cA) A(g |
f2)f(d fa)f(d | fg)a(g fe)d(f | ef)g(f ed)cB | a2d2 d2z :|
%%begintext align
Dis een comes fae Yell an it seems it a fiddler comin hame fae a
weddin set him doon ta rest upon a broo.  He heard music comin
fae a hole ida grund an he could hear da soond o dancin as weel.
He kent it wis da trows haddin a rant bit he wisna feard an sat
still until he'd gottin da t\"un in his head.  Whin he got hame
he never guid ta bed until he wis able to play him upo da fiddle.
Bobby Jamieson an Willie Barclay Henderson o Nort Yell played
dis een wi da high bass, dat is, da back string set up ta A.
%%endtext

%%sep 2 1 500
%%sep 1 1 500

